tools/download-figma-icons/icons/outlined-large/smart-heater.svg

<svg width="64" height="64" viewBox="0 0 64 64" fill="none" xmlns="http://www.w3.org/2000/svg"><path fill-rule="evenodd" clip-rule="evenodd" d="M44.402 8.522a1.5 1.5 0 1 0 2.196-2.044C42.704 2.301 37.521 0 32 0c-5.521 0-10.704 2.301-14.598 6.478a1.5 1.5 0 1 0 2.196 2.044C22.917 4.961 27.321 3 32 3c4.679 0 9.083 1.961 12.402 5.522ZM51.5 61a2.5 2.5 0 0 0 2.5-2.5v-33a2.5 2.5 0 0 0-5 0v33a2.5 2.5 0 0 0 2.5 2.5ZM46 55h-2V31h2v24Zm-7.5 6a2.5 2.5 0 0 0 2.5-2.5v-33a2.5 2.5 0 0 0-5 0v33a2.5 2.5 0 0 0 2.5 2.5ZM33 31v24h-2V31h2Zm-7.5 30a2.5 2.5 0 0 0 2.5-2.5v-33a2.5 2.5 0 0 0-5 0v33a2.5 2.5 0 0 0 2.5 2.5ZM20 55h-2V31h2v24Zm-7.5 6a2.5 2.5 0 0 0 2.5-2.5v-33a2.5 2.5 0 0 0-5 0v33a2.5 2.5 0 0 0 2.5 2.5ZM57 55h2.5c.83 0 1.5.67 1.5 1.5s-.67 1.5-1.5 1.5H57v.5c0 3.03-2.47 5.5-5.5 5.5a5.51 5.51 0 0 1-5.5-5.5V58h-2v.5c0 3.03-2.47 5.5-5.5 5.5a5.51 5.51 0 0 1-5.5-5.5V58h-2v.5c0 3.03-2.47 5.5-5.5 5.5a5.51 5.51 0 0 1-5.5-5.5V58h-2v.5c0 3.03-2.47 5.5-5.5 5.5A5.51 5.51 0 0 1 7 58.5V58H4.5c-.83 0-1.5-.67-1.5-1.5S3.67 55 4.5 55H7V31H4.5c-.83 0-1.5-.67-1.5-1.5S3.67 28 4.5 28H7v-2.5c0-3.03 2.47-5.5 5.5-5.5s5.5 2.47 5.5 5.5V28h2v-2.5c0-3.03 2.47-5.5 5.5-5.5s5.5 2.47 5.5 5.5V28h2v-2.5c0-3.03 2.47-5.5 5.5-5.5s5.5 2.47 5.5 5.5V28h2v-2.5c0-3.03 2.47-5.5 5.5-5.5s5.5 2.47 5.5 5.5V28h2.5c.83 0 1.5.67 1.5 1.5s-.67 1.5-1.5 1.5H57v24ZM37 17c-.375 0-.751-.14-1.042-.421-2.182-2.107-5.734-2.107-7.916 0a1.5 1.5 0 1 1-2.084-2.158c3.332-3.217 8.752-3.217 12.084 0A1.5 1.5 0 0 1 37 17Zm3.431-4.448a1.497 1.497 0 0 0 2.121.017 1.5 1.5 0 0 0 .017-2.121C39.747 7.58 35.994 6 32 6c-3.994 0-7.747 1.58-10.569 4.448a1.5 1.5 0 1 0 2.138 2.104C25.822 10.262 28.816 9 32 9c3.184 0 6.178 1.262 8.431 3.552Z" fill="currentColor"/></svg>

<svg width="64" height="64" viewBox="0 0 64 64" fill="none" xmlns="http://www.w3.org/2000/svg">
<path fill-rule="evenodd" clip-rule="evenodd" d="M44.402 8.522C44.698 8.84 45.099 9 45.5 9C45.866 9 46.233 8.866 46.522 8.598C47.129 8.032 47.162 7.083 46.598 6.478C42.704 2.301 37.521 0 32 0C26.479 0 21.296 2.301 17.402 6.478C16.838 7.083 16.871 8.032 17.478 8.598C18.084 9.163 19.032 9.13 19.598 8.522C22.917 4.961 27.321 3 32 3C36.679 3 41.083 4.961 44.402 8.522ZM51.5 61C52.88 61 54 59.88 54 58.5V25.5C54 24.12 52.88 23 51.5 23C50.12 23 49 24.12 49 25.5V58.5C49 59.88 50.12 61 51.5 61ZM46 55H44V31H46V55ZM38.5 61C39.88 61 41 59.88 41 58.5V25.5C41 24.12 39.88 23 38.5 23C37.12 23 36 24.12 36 25.5V58.5C36 59.88 37.12 61 38.5 61ZM33 31V55H31V31H33ZM25.5 61C26.88 61 28 59.88 28 58.5V25.5C28 24.12 26.88 23 25.5 23C24.12 23 23 24.12 23 25.5V58.5C23 59.88 24.12 61 25.5 61ZM20 55H18V31H20V55ZM12.5 61C13.88 61 15 59.88 15 58.5V25.5C15 24.12 13.88 23 12.5 23C11.12 23 10 24.12 10 25.5V58.5C10 59.88 11.12 61 12.5 61ZM57 55H59.5C60.33 55 61 55.67 61 56.5C61 57.33 60.33 58 59.5 58H57V58.5C57 61.53 54.53 64 51.5 64C48.47 64 46 61.53 46 58.5V58H44V58.5C44 61.53 41.53 64 38.5 64C35.47 64 33 61.53 33 58.5V58H31V58.5C31 61.53 28.53 64 25.5 64C22.47 64 20 61.53 20 58.5V58H18V58.5C18 61.53 15.53 64 12.5 64C9.47 64 7 61.53 7 58.5V58H4.5C3.67 58 3 57.33 3 56.5C3 55.67 3.67 55 4.5 55H7V31H4.5C3.67 31 3 30.33 3 29.5C3 28.67 3.67 28 4.5 28H7V25.5C7 22.47 9.47 20 12.5 20C15.53 20 18 22.47 18 25.5V28H20V25.5C20 22.47 22.47 20 25.5 20C28.53 20 31 22.47 31 25.5V28H33V25.5C33 22.47 35.47 20 38.5 20C41.53 20 44 22.47 44 25.5V28H46V25.5C46 22.47 48.47 20 51.5 20C54.53 20 57 22.47 57 25.5V28H59.5C60.33 28 61 28.67 61 29.5C61 30.33 60.33 31 59.5 31H57V55ZM37 17C36.625 17 36.249 16.86 35.958 16.579C33.776 14.472 30.224 14.472 28.042 16.579C27.447 17.155 26.498 17.138 25.921 16.542C25.346 15.946 25.362 14.996 25.958 14.421C29.29 11.204 34.71 11.204 38.042 14.421C38.638 14.996 38.654 15.946 38.079 16.542C37.785 16.847 37.393 17 37 17ZM40.431 12.552C40.725 12.851 41.112 13 41.5 13C41.88 13 42.26 12.856 42.552 12.569C43.143 11.988 43.15 11.038 42.569 10.448C39.747 7.58 35.994 6 32 6C28.006 6 24.253 7.58 21.431 10.448C20.85 11.038 20.857 11.988 21.448 12.569C22.039 13.149 22.987 13.144 23.569 12.552C25.822 10.262 28.816 9 32 9C35.184 9 38.178 10.262 40.431 12.552Z" fill="black"/>
</svg>
